X:031801050
T:Crapaud
C:Traditional
O:South Louisiana
Z:Transcribed from "Yé Yaille, Chère", by Raymond E. François
Z:Generally tweaked by Jim "Bullethead" Weller
M:4/4
L:1/4
Q:175
Z: Contributed 2016-10-27 09:32:20 by Bob R.Glanville@talktalk.net
K:G
z3/2 G/ "G" B/d/d/B/ |: d B/G/ B/d/d/B/ | A/G/G/A/ B/d/d/B/ | "D" A G/A/ B/A/G/A/ |
"G" G B/G/ B/ d B/ | d B/G/ B/d/d/B/ | G B/G/ B/d/d/B/ | "D" A G/A/ B/A/G/A/ | [1 "G" G2 B/d/d/B/ :| [2 "G" G2 g/g/ b |
|: !turn! g3/2 g/ a/g/f/e/ | d2 g/g/ b | g3/2 g/ a/g/e/d/ | g2 g/g/b |
g3/2 g/ b/g/f/e/ | d2 g/g/ b |a/g/f/d/ c/d/f/a/ | [1g3/2 z/ g/g/ b :| [2 g .g .g z|
